img/hero__rect.svg

<svg width="267" height="211" fill="none" xmlns="http://www.w3.org/2000/svg"><path d="M296.591 211.792c0-9.785-.54-171.2 0-211.584-34.347 45.142-151.285 117.551-151.285 117.551s-39.538 26.779-75.292 57.018C48.21 193.212 18.763 208.818.922 211.792H296.59z" fill="url(#paint0_linear_131_1436)"/><path style="mix-blend-mode:multiply" opacity=".7" d="M296.591 211.792c0-9.785-.54-171.2 0-211.584-34.347 45.142-151.285 117.551-151.285 117.551s-39.538 26.779-75.292 57.018C48.21 193.212 18.763 208.818.922 211.792H296.59z" fill="url(#paint1_linear_131_1436)"/><path d="M245.375 48.252C209.838 64.56 110.596 63.425 66.968 64.055c0 33.267-5.173 91.348-13.732 117.244-2.56 7.713-6.488 10.416-6.488 10.416a58.985 58.985 0 0010.488-6.199C89.89 162.432 193.547 89.465 245.375 48.251z" fill="url(#paint2_linear_131_1436)"/><path d="M133.641 173.381c-.297 0-.564-.104-.801-.312a1.18 1.18 0 01-.311-.8V143.4c0-.326.103-.593.311-.8.208-.237.474-.356.801-.356h20.683c.327 0 .593.119.801.356.237.207.356.474.356.8v4.715c0 .327-.119.593-.356.801-.208.208-.474.311-.801.311h-13.611v6.183h12.722c.326 0 .593.119.8.356.238.208.356.475.356.801v4.715c0 .326-.118.593-.356.8-.207.208-.474.312-.8.312h-12.722v9.875c0 .296-.104.563-.311.8-.208.208-.475.312-.801.312h-5.96zm26.746 0c-.296 0-.563-.104-.8-.312a1.182 1.182 0 01-.312-.8v-20.862c0-.326.104-.593.312-.801.207-.237.474-.356.8-.356h5.427c.326 0 .593.119.801.356.237.208.355.475.355.801v1.69a8.313 8.313 0 012.892-2.09c1.127-.504 2.372-.757 3.736-.757h2.002c.326 0 .593.104.8.312.208.207.312.474.312.801v4.848c0 .296-.104.563-.312.801-.207.207-.474.311-.8.311h-4.493c-1.186 0-2.105.326-2.758.979-.622.652-.934 1.571-.934 2.757v11.21c0 .326-.118.593-.356.8-.207.208-.474.312-.8.312h-5.872zm30.071.444c-3.618 0-6.465-.963-8.541-2.891-2.075-1.957-3.143-4.789-3.202-8.496v-1.379c.118-3.528 1.216-6.286 3.291-8.273 2.076-1.987 4.879-2.98 8.407-2.98 2.551 0 4.701.519 6.45 1.557 1.779 1.008 3.099 2.416 3.959 4.225.89 1.779 1.334 3.811 1.334 6.094v1.112c0 .326-.118.608-.356.845-.207.208-.474.312-.8.312h-14.101v.267c.03 1.334.341 2.416.934 3.247.594.8 1.439 1.201 2.536 1.201.712 0 1.275-.134 1.69-.401.445-.296.86-.667 1.246-1.112.267-.296.474-.474.622-.533.178-.089.445-.134.801-.134h5.827c.267 0 .489.089.667.267a.68.68 0 01.312.578c0 .771-.445 1.676-1.335 2.714-.86 1.037-2.135 1.927-3.825 2.668-1.661.742-3.633 1.112-5.916 1.112zm3.514-14.411v-.089c0-1.424-.312-2.521-.934-3.292-.623-.801-1.498-1.201-2.625-1.201-1.126 0-2.001.4-2.624 1.201-.593.771-.89 1.868-.89 3.292v.089h7.073zm23.027 14.411c-3.618 0-6.465-.963-8.541-2.891-2.075-1.957-3.143-4.789-3.202-8.496v-1.379c.118-3.528 1.216-6.286 3.291-8.273 2.076-1.987 4.878-2.98 8.407-2.98 2.551 0 4.7.519 6.45 1.557 1.779 1.008 3.099 2.416 3.959 4.225.889 1.779 1.334 3.811 1.334 6.094v1.112c0 .326-.118.608-.356.845-.207.208-.474.312-.8.312H213.44v.267c.03 1.334.341 2.416.934 3.247.593.8 1.439 1.201 2.536 1.201.711 0 1.275-.134 1.69-.401.445-.296.86-.667 1.246-1.112.266-.296.474-.474.622-.533.178-.089.445-.134.801-.134h5.827c.267 0 .489.089.667.267a.68.68 0 01.312.578c0 .771-.445 1.676-1.335 2.714-.86 1.037-2.135 1.927-3.825 2.668-1.661.742-3.633 1.112-5.916 1.112zm3.514-14.411v-.089c0-1.424-.312-2.521-.934-3.292-.623-.801-1.498-1.201-2.625-1.201s-2.001.4-2.624 1.201c-.593.771-.89 1.868-.89 3.292v.089h7.073z" fill="#fff"/><defs><linearGradient id="paint0_linear_131_1436" x1="28.875" y1="-40.869" x2="338.045" y2="-13.687" gradientUnits="userSpaceOnUse"><stop stop-color="#0085FF"/><stop offset="1" stop-color="#591FFF"/></linearGradient><linearGradient id="paint1_linear_131_1436" x1="128.312" y1="80.87" x2="268.929" y2="253.961" gradientUnits="userSpaceOnUse"><stop stop-color="#505252"/><stop offset=".42" stop-color="#C4CBCF"/><stop offset=".7" stop-color="#fff"/><stop offset="1" stop-color="#F0F0F0"/></linearGradient><linearGradient id="paint2_linear_131_1436" x1="94.125" y1="42.701" x2="160.154" y2="140.933" gradientUnits="userSpaceOnUse"><stop stop-color="#F0F0F0"/><stop offset=".4" stop-color="#fff"/><stop offset=".66" stop-color="#C4CBCF"/><stop offset="1" stop-color="#2F3030"/></linearGradient></defs></svg>

<svg width="267" height="211" viewBox="0 0 267 211" fill="none" xmlns="http://www.w3.org/2000/svg">
<path d="M296.591 211.792C296.591 202.007 296.051 40.5929 296.591 0.208008C262.244 45.3505 145.306 117.759 145.306 117.759C145.306 117.759 105.768 144.538 70.0142 174.777C48.2088 193.212 18.7626 208.818 0.921875 211.792H296.591Z" fill="url(#paint0_linear_131_1436)"/>
<path style="mix-blend-mode:multiply" opacity="0.7" d="M296.591 211.792C296.591 202.007 296.051 40.5929 296.591 0.208008C262.244 45.3505 145.306 117.759 145.306 117.759C145.306 117.759 105.768 144.538 70.0142 174.777C48.2088 193.212 18.7626 208.818 0.921875 211.792H296.591Z" fill="url(#paint1_linear_131_1436)"/>
<path d="M245.375 48.2515C209.838 64.5604 110.596 63.4251 66.9675 64.0558C66.9675 97.3225 61.7955 155.404 53.2356 181.3C50.6766 189.013 46.748 191.716 46.748 191.716C50.4487 190.017 53.9635 187.94 57.2362 185.517C89.8902 162.432 193.547 89.4654 245.375 48.2515Z" fill="url(#paint2_linear_131_1436)"/>
<path d="M133.641 173.381C133.344 173.381 133.077 173.277 132.84 173.069C132.632 172.832 132.529 172.565 132.529 172.269V143.4C132.529 143.074 132.632 142.807 132.84 142.6C133.048 142.363 133.314 142.244 133.641 142.244H154.324C154.651 142.244 154.917 142.363 155.125 142.6C155.362 142.807 155.481 143.074 155.481 143.4V148.115C155.481 148.442 155.362 148.708 155.125 148.916C154.917 149.124 154.651 149.227 154.324 149.227H140.713V155.41H153.435C153.761 155.41 154.028 155.529 154.235 155.766C154.473 155.974 154.591 156.241 154.591 156.567V161.282C154.591 161.608 154.473 161.875 154.235 162.082C154.028 162.29 153.761 162.394 153.435 162.394H140.713V172.269C140.713 172.565 140.609 172.832 140.402 173.069C140.194 173.277 139.927 173.381 139.601 173.381H133.641ZM160.387 173.381C160.091 173.381 159.824 173.277 159.587 173.069C159.379 172.832 159.275 172.565 159.275 172.269V151.407C159.275 151.081 159.379 150.814 159.587 150.606C159.794 150.369 160.061 150.25 160.387 150.25H165.814C166.14 150.25 166.407 150.369 166.615 150.606C166.852 150.814 166.97 151.081 166.97 151.407V153.097C167.801 152.178 168.765 151.481 169.862 151.007C170.989 150.503 172.234 150.25 173.598 150.25H175.6C175.926 150.25 176.193 150.354 176.4 150.562C176.608 150.769 176.712 151.036 176.712 151.363V156.211C176.712 156.507 176.608 156.774 176.4 157.012C176.193 157.219 175.926 157.323 175.6 157.323H171.107C169.921 157.323 169.002 157.649 168.349 158.302C167.727 158.954 167.415 159.873 167.415 161.059V172.269C167.415 172.595 167.297 172.862 167.059 173.069C166.852 173.277 166.585 173.381 166.259 173.381H160.387ZM190.458 173.825C186.84 173.825 183.993 172.862 181.917 170.934C179.842 168.977 178.774 166.145 178.715 162.438V161.059C178.833 157.531 179.931 154.773 182.006 152.786C184.082 150.799 186.885 149.806 190.413 149.806C192.964 149.806 195.114 150.325 196.863 151.363C198.642 152.371 199.962 153.779 200.822 155.588C201.712 157.367 202.156 159.399 202.156 161.682V162.794C202.156 163.12 202.038 163.402 201.8 163.639C201.593 163.847 201.326 163.951 201 163.951H186.899V164.218C186.929 165.552 187.24 166.634 187.833 167.465C188.427 168.265 189.272 168.666 190.369 168.666C191.081 168.666 191.644 168.532 192.059 168.265C192.504 167.969 192.919 167.598 193.305 167.153C193.572 166.857 193.779 166.679 193.927 166.62C194.105 166.531 194.372 166.486 194.728 166.486H200.555C200.822 166.486 201.044 166.575 201.222 166.753C201.43 166.901 201.534 167.094 201.534 167.331C201.534 168.102 201.089 169.007 200.199 170.045C199.339 171.082 198.064 171.972 196.374 172.713C194.713 173.455 192.741 173.825 190.458 173.825ZM193.972 159.414V159.325C193.972 157.901 193.66 156.804 193.038 156.033C192.415 155.232 191.54 154.832 190.413 154.832C189.287 154.832 188.412 155.232 187.789 156.033C187.196 156.804 186.899 157.901 186.899 159.325V159.414H193.972ZM216.999 173.825C213.381 173.825 210.534 172.862 208.458 170.934C206.383 168.977 205.315 166.145 205.256 162.438V161.059C205.374 157.531 206.472 154.773 208.547 152.786C210.623 150.799 213.425 149.806 216.954 149.806C219.505 149.806 221.654 150.325 223.404 151.363C225.183 152.371 226.503 153.779 227.363 155.588C228.252 157.367 228.697 159.399 228.697 161.682V162.794C228.697 163.12 228.579 163.402 228.341 163.639C228.134 163.847 227.867 163.951 227.541 163.951H213.44V164.218C213.47 165.552 213.781 166.634 214.374 167.465C214.967 168.265 215.813 168.666 216.91 168.666C217.621 168.666 218.185 168.532 218.6 168.265C219.045 167.969 219.46 167.598 219.846 167.153C220.112 166.857 220.32 166.679 220.468 166.62C220.646 166.531 220.913 166.486 221.269 166.486H227.096C227.363 166.486 227.585 166.575 227.763 166.753C227.971 166.901 228.075 167.094 228.075 167.331C228.075 168.102 227.63 169.007 226.74 170.045C225.88 171.082 224.605 171.972 222.915 172.713C221.254 173.455 219.282 173.825 216.999 173.825ZM220.513 159.414V159.325C220.513 157.901 220.201 156.804 219.579 156.033C218.956 155.232 218.081 154.832 216.954 154.832C215.827 154.832 214.953 155.232 214.33 156.033C213.737 156.804 213.44 157.901 213.44 159.325V159.414H220.513Z" fill="white"/>
<defs>
<linearGradient id="paint0_linear_131_1436" x1="28.8755" y1="-40.8691" x2="338.045" y2="-13.6872" gradientUnits="userSpaceOnUse">
<stop stop-color="#0085FF"/>
<stop offset="1" stop-color="#591FFF"/>
</linearGradient>
<linearGradient id="paint1_linear_131_1436" x1="128.312" y1="80.8697" x2="268.929" y2="253.961" gradientUnits="userSpaceOnUse">
<stop stop-color="#505252"/>
<stop offset="0.42" stop-color="#C4CBCF"/>
<stop offset="0.7" stop-color="white"/>
<stop offset="1" stop-color="#F0F0F0"/>
</linearGradient>
<linearGradient id="paint2_linear_131_1436" x1="94.1251" y1="42.701" x2="160.154" y2="140.933" gradientUnits="userSpaceOnUse">
<stop stop-color="#F0F0F0"/>
<stop offset="0.4" stop-color="white"/>
<stop offset="0.66" stop-color="#C4CBCF"/>
<stop offset="1" stop-color="#2F3030"/>
</linearGradient>
</defs>
</svg>
